!!!OTL: Poor Wayfaring Stranger
!!!ARE: United States of America
!!!AGN: Southern White Spiritual
!!!AMD: Pentatonic
**kern
*clefG2
*k[b-]
*M3/4
*MM60
{4d/
8d/L
8a/J
=1
4.a/
8g/
8a/L
8a/J
=2
16g/LL
16f/JJ
4d/}
{8d/
8d/L
8a/J
=3
4.g/
8d/
8f/L
8g/J
=4
4.a/}
{8d/
8d/L
8a/J
=5
4.a/
8g/
8a/L
8a/J
=6
(16g/LL
16f/JJ)
4d/}
{8d/
8d/L
8a/J
=7
4.g/
8f/
8d/L
8c/J
=8
4.d/}
{8a/
8a/L
8cc/J
=9
4.dd\
8cc\
8dd\L
8a\J
=10
8a/
4g/}
{8a/
8a/L
8cc/J
=11
4.dd\
8cc\
8a/L
8g/J
=12
4.a/}
{8a/
8dd\L
8cc\J
=13
4.a/
8g/
8a/L
8a/J
=14
(16g/LL
16f/JJ)
4d/}
{8d/
8d/L
8a/J
=15
4.g/
8f/
8d/L
8c/J
=16
4.d/}
==
*-
